X:9
T:Bacca Pipes
R:jig 32
M:6/8
L:1/8
Q:1/4=140
R:Jig
K:ADor
|: B |"C" c3   c2 e |"G" d2 c B2 d |"Am" c2 B A2 c |
"G" B2 A G2 B |"C" c3   c2 e |"G" d2 c B2 d |"C" c2 A "G"B2 G |"Am" A3   A2 :|
|: z |"G" g2 f g2 e | d2 B G3   | g3   ffg  |"D" a2 f d2 z |
"G" g2 f g2 e | d2 B G2 B |"C" c2 A "G"B2 G |"Am" A3   A2 :|

